formas-de-pagamento/diners.svg

<svg enable-background="new 0 0 60 40" height="40" viewBox="0 0 60 40" width="60" xmlns="http://www.w3.org/2000/svg"><switch><foreignObject height="1" requiredExtensions="http://ns.adobe.com/AdobeIllustrator/10.0/" width="1"/><g><path d="m60 35c0 2.75-2.25 5-5 5h-50c-2.75 0-5-2.25-5-5v-30c0-2.75 2.25-5 5-5h50c2.75 0 5 2.25 5 5z" fill="#f5f5f5"/><path d="m55 0h-50c-2.75 0-5 2.25-5 5v30c0 2.75 2.25 5 5 5h50c2.75 0 5-2.25 5-5v-30c0-2.75-2.25-5-5-5zm0 1c2.206 0 4 1.794 4 4v30c0 2.206-1.794 4-4 4h-50c-2.206 0-4-1.794-4-4v-30c0-2.206 1.794-4 4-4z" fill="#fff"/><g fill="#074c95"><path d="m36.11 19.99c.038-4.499-3.602-8.355-8.295-8.41-4.682-.054-8.508 3.678-8.509 8.397-.001 4.727 3.788 8.367 8.32 8.411 4.775.046 8.518-3.848 8.484-8.398zm-8.183 9.166c-.068-.015-.842-.04-.911-.044-.72-.038-1.421-.176-2.107-.393-1.687-.532-3.108-1.471-4.259-2.813-1.189-1.386-1.903-2.984-2.115-4.802-.024-.203-.054-.406-.081-.609 0-.295 0-.589 0-.884.015-.062.035-.124.043-.187.05-.402.077-.807.149-1.205.319-1.753 1.081-3.29 2.32-4.572 1.544-1.597 3.443-2.48 5.646-2.723.203-.022 1.147-.053 1.349-.079 1.756 0 4.659.038 4.727.045.269.029.54.04.806.083 1.899.303 3.599 1.051 5.029 2.343 2.192 1.98 3.186 4.461 3.002 7.41-.064 1.028-.322 2.013-.79 2.925-1.611 3.142-4.189 4.934-7.679 5.424-.189.028-3.373.081-5.129.081z"/><path d="m29.645 24.88c0-3.272 0-6.527 0-9.785 1.448.464 3.239 2.143 3.352 4.644.117 2.611-1.629 4.538-3.352 5.141z"/><path d="m25.78 24.883c-1.597-.559-3.496-2.414-3.348-5.212.123-2.321 1.766-4.047 3.348-4.581z"/></g></g></switch></svg>

<?xml version="1.0" encoding="UTF-8"?>
<svg width="60px" height="40px" viewBox="0 0 60 40" version="1.1" xmlns="http://www.w3.org/2000/svg" xmlns:xlink="http://www.w3.org/1999/xlink">
    <!-- Generator: Sketch 52.4 (67378) - http://www.bohemiancoding.com/sketch -->
    <title>Artboard</title>
    <desc>Created with Sketch.</desc>
    <g id="Artboard" stroke="none" stroke-width="1" fill="none" fill-rule="evenodd">
        <g id="diners">
            <path d="M60,35 C60,37.75 57.75,40 55,40 L5,40 C2.25,40 0,37.75 0,35 L0,5 C0,2.25 2.25,0 5,0 L55,0 C57.75,0 60,2.25 60,5 L60,35 Z" id="Path" fill="#F5F5F5"></path>
            <path d="M55,0 L5,0 C2.25,0 0,2.25 0,5 L0,35 C0,37.75 2.25,40 5,40 L55,40 C57.75,40 60,37.75 60,35 L60,5 C60,2.25 57.75,0 55,0 Z M55,1 C57.206,1 59,2.794 59,5 L59,35 C59,37.206 57.206,39 55,39 L5,39 C2.794,39 1,37.206 1,35 L1,5 C1,2.794 2.794,1 5,1 L55,1 Z" id="Shape" fill="#D0D0D0" fill-rule="nonzero"></path>
            <path d="M36.11,19.99 C36.148,15.491 32.508,11.635 27.815,11.58 C23.133,11.526 19.307,15.258 19.306,19.977 C19.305,24.704 23.094,28.344 27.626,28.388 C32.401,28.434 36.144,24.54 36.11,19.99 Z M27.927,29.156 C27.859,29.141 27.085,29.116 27.016,29.112 C26.296,29.074 25.595,28.936 24.909,28.719 C23.222,28.187 21.801,27.248 20.65,25.906 C19.461,24.52 18.747,22.922 18.535,21.104 C18.511,20.901 18.481,20.698 18.454,20.495 C18.454,20.2 18.454,19.906 18.454,19.611 C18.469,19.549 18.489,19.487 18.497,19.424 C18.547,19.022 18.574,18.617 18.646,18.219 C18.965,16.466 19.727,14.929 20.966,13.647 C22.51,12.05 24.409,11.167 26.612,10.924 C26.815,10.902 27.759,10.871 27.961,10.845 C29.717,10.845 32.62,10.883 32.688,10.89 C32.957,10.919 33.228,10.93 33.494,10.973 C35.393,11.276 37.093,12.024 38.523,13.316 C40.715,15.296 41.709,17.777 41.525,20.726 C41.461,21.754 41.203,22.739 40.735,23.651 C39.124,26.793 36.546,28.585 33.056,29.075 C32.867,29.103 29.683,29.156 27.927,29.156 Z" id="Shape" fill="#074C95" fill-rule="nonzero"></path>
            <path d="M29.645,24.88 C29.645,21.608 29.645,18.353 29.645,15.095 C31.093,15.559 32.884,17.238 32.997,19.739 C33.114,22.35 31.368,24.277 29.645,24.88 Z" id="Path" fill="#074C95"></path>
            <path d="M25.78,24.883 C24.183,24.324 22.284,22.469 22.432,19.671 C22.555,17.35 24.198,15.624 25.78,15.09 L25.78,24.883 Z" id="Path" fill="#074C95"></path>
        </g>
    </g>
</svg>
